packages/core/src/svgs/tokens/mono/ARSW.svg

<svg width="24" height="24" viewBox="0 0 24 24" fill="none" xmlns="http://www.w3.org/2000/svg">
<path d="M2.96777 19.6644L3.93552 22C5.74197 16.129 9.74195 8.6645 12 4.99998C14.2581 8.6645 18.7742 16.6645 20.0644 22L21.0323 19.6644C20.5161 16.9999 15.5483 5.6645 12 2C8.77421 5.6645 4.25809 15.8903 2.96777 19.6644ZM12 12C10.4516 14.4 8.34196 19.6644 7.48389 22L6.51615 19.3355C7.16131 16.9999 10.3872 10.6645 12 8.33547C13.9355 10.6645 17.1613 17.3355 17.4839 19.3355L16.5161 21.6645C15.8709 19.6644 13.6129 14.6645 12 12ZM11.0322 21.3354L12 20L12.9678 21.3354L13.9355 20C13.9355 18.9999 12.6452 16.6645 12 16C11.3548 16.6645 10.0646 19.2 10.0646 20L11.0322 21.3354Z" fill="white"/>
</svg>

<svg xmlns="http://www.w3.org/2000/svg" width="24" height="24" fill="none" viewBox="0 0 24 24">
    <path fill="#fff" d="M2.968 19.664 3.936 22C5.742 16.129 9.742 8.665 12 5c2.258 3.665 6.774 11.665 8.064 17l.968-2.336C20.516 17 15.548 5.664 12 2 8.774 5.665 4.258 15.89 2.968 19.664M12 12c-1.548 2.4-3.658 7.664-4.516 10l-.968-2.665c.645-2.335 3.871-8.67 5.484-11 1.935 2.33 5.161 9 5.484 11l-.968 2.33c-.645-2-2.903-7-4.516-9.665m-.968 9.335L12 20l.968 1.335.967-1.335c0-1-1.29-3.335-1.935-4-.645.665-1.935 3.2-1.935 4z"/>
</svg>
